X:675
T:Lugging The Box #1 
C:Joe Buchanan's Scottish Tome - Page 208.1
I:208 1
C:Neil Barron
R:Reel
Z:Carl Allison
L:1/8
M:4/4
K:G
D2 | "G"G2 GF "D/G"GAGE |"G"DEGA "D/G"BGGD | "Am"EA A2 "E"BA "Am"A2 | "Am"ABAG "D7"EcBA |
"G"G2 GF "D/G"GAGE | "G"DEGA "G"BG"G7"GD | "C"E2 GE "D/G"DEGB | "D7"AGAB "G"G2 :|
BA | "G"G2 BA "D"GAGE | "G"DEGA "D/G"BGcB | "Am"A2 cB ABAG | "D7"EGAB cABA |
"G"G2 BA "D"GAGE | "G"DEGA "D/G"BGGD | "Em"E2 GE "D/G"DEGB |  "Am"AGAB "G"G2 G2 :|

